Adwaita++/emblems/16/emblem-photos.svg

<svg fill="none" height="16" viewBox="0 0 16 16" width="16" xmlns="http://www.w3.org/2000/svg">
  <path d="m13.6 1h-11.2c-.7732 0-1.4.6268-1.4 1.4v11.2c0 .7732.6268 1.4 1.4 1.4h11.2c.7732 0 1.4-.6268 1.4-1.4v-11.2c0-.7732-.6268-1.4-1.4-1.4z" fill="#9a9996"/>
  <path d="m6.57143 3.7c-.39283 0-.71429.32253-.71429.71666v.71667h-2.14285c-.3943 0-.71429.32253-.71429.71667v5.7333c0 .3942.31999.7167.71429.7167h8.57141c.3943 0 .7143-.3225.7143-.7167v-5.7333c0-.39414-.32-.71667-.7143-.71667h-2.1428v-.71667c0-.39413-.3215-.71666-.71433-.71666zm1.42857 2.15c1.57793 0 2.8571 1.28348 2.8571 2.86666 0 1.58324-1.27917 2.86664-2.8571 2.86664s-2.85714-1.2834-2.85714-2.86664c0-1.58318 1.27921-2.86666 2.85714-2.86666zm0 1.43333c-.789 0-1.42857.64173-1.42857 1.43333 0 .79161.63959 1.43334 1.42857 1.43334s1.42857-.64173 1.42857-1.43334c0-.7916-.63959-1.43333-1.42857-1.43333z" fill="#f6f5f4"/>
</svg>

<svg xmlns="http://www.w3.org/2000/svg" fill="none" width="16" height="16" viewBox="0 0 16 16">
 <path fill="url(#paint0_linear)" d="M13.6 1H2.4C1.6268 1 1 1.6268 1 2.4V13.6C1 14.3732 1.6268 15 2.4 15H13.6C14.3732 15 15 14.3732 15 13.6V2.4C15 1.6268 14.3732 1 13.6 1Z"/>
 <path fill="url(#paint1_linear)" d="M6.57143 3.7C6.1786 3.7 5.85714 4.02253 5.85714 4.41666V5.13333H3.71429C3.31999 5.13333 3 5.45586 3 5.85V11.5833C3 11.9775 3.31999 12.3 3.71429 12.3H12.2857C12.68 12.3 13 11.9775 13 11.5833V5.85C13 5.45586 12.68 5.13333 12.2857 5.13333H10.1429V4.41666C10.1429 4.02253 9.8214 3.7 9.42857 3.7H6.57143ZM8 5.85C9.57793 5.85 10.8571 7.13348 10.8571 8.71666C10.8571 10.2999 9.57793 11.5833 8 11.5833C6.42207 11.5833 5.14286 10.2999 5.14286 8.71666C5.14286 7.13348 6.42207 5.85 8 5.85ZM8 7.28333C7.211 7.28333 6.57143 7.92506 6.57143 8.71666C6.57143 9.50827 7.21102 10.15 8 10.15C8.78898 10.15 9.42857 9.50827 9.42857 8.71666C9.42857 7.92506 8.78898 7.28333 8 7.28333Z"/>
 <defs>
  <linearGradient id="paint0_linear" x1="1" x2="15" y1="8" y2="8" gradientUnits="userSpaceOnUse">
   <stop stop-color="#9A9996"/>
  </linearGradient>
  <linearGradient id="paint1_linear" x1="3" x2="13" y1="8" y2="8" gradientUnits="userSpaceOnUse">
   <stop stop-color="#F6F5F4"/>
  </linearGradient>
 </defs>
</svg>
